X:1
T:Title
%%score ( 1 2 ) { 3 | 4 }
L:1/8
Q:1/4=100
M:9/8
K:C
V:1 treble nm="Grand Piano, Soprano"
V:2 treble 
V:3 bass nm="Choir Pad, Phinehas, 10.10.10.10 D"
V:4 bass 
V:1
 [CE][DF][_E^F] [=EG]3 [Ec]2 [Ec] | [Ec][EB][EA] [FB]6 | [FG][FA][FG] [FG]3 [Fd]2 [Fd] | %3
w: By~John~Robson~Sweney,~1891 * * * * *|||
 [Fd][Ec][DB] [Ec]6 | [EG][FA][EG] [Ge]3 [Ec]2 [EG] | [EG][Ec][GB] [FA]6 | %6
w: |||
 [FA][FB][Fc] [Ec]3 [EG]2 [Ec] | [DB][Ec][Fd] [Ec]6 | z3 .d6 | [DB][Ec][Fd] [Ec]6 | z3 A3 z3 | %11
w: |||||
 [^FA][FB][Fc] B3- [=FB]3 | [EG][FA][EG] [Ge]3 [Ec]2 [EG] | [EG][Ec][GB] [FA]6 | %14
w: |||
 [FA][FB][Fc] [Ec]3 [EG]2 [Ec] | [DB][Ec][Fd] [Ec]6- | [Ec]3 z3 z3 |] %17
w: |||
V:2
 x9 | x9 | x9 | x9 | x9 | x9 | x9 | x9 | GGG FFF F[Fd][DB] | x9 | EEE EEE [EA][EA][EA] | z3 G3 z3 | %12
 x9 | x9 | x9 | x9 | x9 |] %17
V:3
 G,G,G, C3 G,2 G, | G,G,[K:treble]C D6 | B,CB,[K:bass] B,3 B,2 B, | B,G,G, G,6 | CCC C3 G,2 C | %5
 CG,E C6 | C[K:bass]B,A, G,3 C2 G, | G,G,G, G,6 | z3 B,B,B, B,B,G, | G,G,G, G,6 | %10
 z3[K:treble] CCC CCC | ECD D6 | CCC C3 G,2 C | CG,E C6 | C[K:bass]B,A, G,3 C2 G, | G,G,G, G,6- | %16
 G,3 z3 z3 |] %17
V:4
 C,C,C, C,3 C,2 C, | C,C,C, G,6 | G,G,G, G,3 G,2 G, | G,,G,,G,, C,6 | C,C,C, C,3 C,2 C, | %5
 C,C,E, F,6 | F,F,F, z3 .G,3 | G,,G,,G,, C,6 | z3 G,G,G, G,G,G,, | G,,G,,G,, C,6 | %10
 z3 A,,A,,A,, A,,A,,A,, | D,D,D, G,6 | C,C,C, C,3 C,2 C, | C,C,E, F,6 | F,F,F, z3 .G,3 | %15
 G,,G,,G,, C,6- | C,3 z3 z3 |] %17

